assets/Keycap 8/Flat/keycap_8_flat.svg

<svg width="32" height="32" viewBox="0 0 32 32" fill="none" xmlns="http://www.w3.org/2000/svg">
<path d="M2 6C2 3.79086 3.79086 2 6 2H26C28.2091 2 30 3.79086 30 6V26C30 28.2091 28.2091 30 26 30H6C3.79086 30 2 28.2091 2 26V6Z" fill="#00A6ED"/>
<path d="M15.972 7.96777C13.4776 7.96777 11.4556 9.98983 11.4556 12.4842C11.4556 13.5476 11.8231 14.5252 12.4381 15.2969C11.4078 16.2532 10.7631 17.6193 10.7631 19.136C10.7631 22.0283 13.1077 24.3729 16 24.3729C18.8923 24.3729 21.2369 22.0283 21.2369 19.136C21.2369 17.6035 20.5786 16.2247 19.5294 15.267C20.1302 14.5001 20.4884 13.5339 20.4884 12.4842C20.4884 9.98983 18.4663 7.96777 15.972 7.96777ZM14.7056 12.4842C14.7056 11.7848 15.2726 11.2178 15.972 11.2178C16.6714 11.2178 17.2384 11.7848 17.2384 12.4842C17.2384 13.1836 16.6714 13.7506 15.972 13.7506C15.2726 13.7506 14.7056 13.1836 14.7056 12.4842ZM14.2631 19.136C14.2631 18.1767 15.0407 17.399 16 17.399C16.9593 17.399 17.7369 18.1767 17.7369 19.136C17.7369 20.0953 16.9593 20.8729 16 20.8729C15.0407 20.8729 14.2631 20.0953 14.2631 19.136Z" fill="white"/>
</svg>

<svg xmlns="http://www.w3.org/2000/svg" width="32" height="32" fill="none"><path fill="#00A6ED" d="M2 6a4 4 0 0 1 4-4h20a4 4 0 0 1 4 4v20a4 4 0 0 1-4 4H6a4 4 0 0 1-4-4V6Z"/><path fill="#fff" d="M15.972 7.968a4.516 4.516 0 0 0-3.534 7.329 5.237 5.237 0 1 0 7.091-.03 4.516 4.516 0 0 0-3.557-7.3Zm-1.266 4.516a1.266 1.266 0 1 1 2.532 0 1.266 1.266 0 0 1-2.532 0Zm-.443 6.652a1.737 1.737 0 1 1 3.474 0 1.737 1.737 0 0 1-3.474 0Z"/></svg>
